!!!COM:	Bach, Johann Sebastian
!!!CDT:	1685/02/21/-1750/07/28/
!!!OTL@@DE:	Herr Christ, der ein'ge Gottes Sohn
!!!SCT:	BWV 164/6
!!!PC#:	101
!!!AGN:	chorale
**kern	**kern	**kern	**kern
*ICvox	*ICvox	*ICvox	*ICvox
*Ibass	*Itenor	*Ialto	*Isoprn
*I"Bass	*I"Tenor	*I"Alto	*I"Soprano
*>[A,A,B]	*>[A,A,B]	*>[A,A,B]	*>[A,A,B]
*>norep[A,B]	*>norep[A,B]	*>norep[A,B]	*>norep[A,B]
*>A	*>A	*>A	*>A
*	*oclefC4	*oclefC3	*oclefC1
*clefF4	*clefGv2	*clefG2	*clefG2
*k[b-e-]	*k[b-e-]	*k[b-e-]	*k[b-e-]
*B-:	*B-:	*B-:	*B-:
*M4/4	*M4/4	*M4/4	*M4/4
*met(c)	*met(c)	*met(c)	*met(c)
*MM100	*MM100	*MM100	*MM100
4B-	4d	4f	4b-
=1	=1	=1	=1
4E-	4e-	8gL	8b-L
.	.	8aJ	8ccJ
4BB-	4f	4b-	4dd
4F	8fL	4a	4cc
.	8e-J	.	.
4G	4d	4g	4b-
=2	=2	=2	=2
4C	4e-	4g	2a
4D	8dL	4f#	.
.	8cJ	.	.
4E-;	4B-;	4g;	4g;
4G	4B-	4g	4dd
=3	=3	=3	=3
4C	4B-	4g	4ee-
8FL	4A	4fX	4cc
8E-J	.	.	.
8DL	4B-	4f	4dd
8E-J	.	.	.
4F	8B-L	4f	4cc
.	8AJ	.	.
=4	=4	=4	=4
2.BB-;	2.d;	2.f;	2.b-;
=:|!	=:|!	=:|!	=:|!
*>B	*>B	*>B	*>B
4BB-	8dL	4f	8b-L
.	8e-J	.	8ccJ
=5	=5	=5	=5
8B-L	4f	4b-	4dd
8A	.	.	.
8G	4g	8b-L	4dd
8FJ	.	8aJ	.
8E-L	8gL	4g	4ee-
8DJ	8fJ	.	.
8CL	8e-L	4g	4ee-
8BB-J	8dJ	.	.
=6	=6	=6	=6
4AA	4c	2f	4ff
4BB-	4B-	.	8ee-L
.	.	.	8ddJ
4FF;	4A;	4f;	4cc;
4AA	4c	4f	4ff
=7	=7	=7	=7
8BB-L	4B-	4f	4dd
8C	.	.	.
8D	4B-	4f	4dd
8E-J	.	.	.
8FL	4A	8fL	4cc
8F#J	.	8e-J	.
8GL	8AL	4d	4b-
8BB-J	8GJ	.	.
=8	=8	=8	=8
8CL	4G	8e-L	2a
8AAJ	.	8cJ	.
4D	4F#	4d	.
4GG;	4B-;	4d;	4g;
4G	4B	4g	4dd
=9	=9	=9	=9
8cL	8cL	4g	4ee-
8B-XJ	8dJ	.	.
8AL	8e-L	4fX	4cc
8FJ	8AJ	.	.
8B-L	4B-	8fL	4dd
8E-J	.	8gJ	.
8FL	8fL	4a	4cc
8FFJ	8e-J	.	.
=10	=10	=10	=10
2.BB-;	2.d;	2.f;	2.b-;
==	==	==	==
*-	*-	*-	*-
!!!YOR1: 371 vierstimmige Choralges&auml;nge von Johann Sebastian Bach, 
!!!YOR2: 4th ed. by Alfred D&ouml;rffel (Leipzig: Breitkopf und H&auml;rtel, 
!!!YOR2: c.1875). 178 pp. Plate "V.A.10".  reprint: J.S. Bach, 371 Four-Part 
!!!YOR4: Chorales (New York: Associated Music Publishers, Inc., c.1940).
!!!SMS: B&H, 4th ed, Alfred D&ouml;rffel, c.1875, plate V.A.10
!!!EED:  Craig Stuart Sapp
!!!EEV:  2009/05/22
